Numix-GalliumOS/22/apps/salut.svg

<?xml version="1.0" encoding="UTF-8" standalone="no"?>
<svg
   xmlns:dc="http://purl.org/dc/elements/1.1/"
   xmlns:cc="http://creativecommons.org/ns#"
   xmlns:rdf="http://www.w3.org/1999/02/22-rdf-syntax-ns#"
   xmlns:svg="http://www.w3.org/2000/svg"
   xmlns="http://www.w3.org/2000/svg"
   xmlns:sodipodi="http://sodipodi.sourceforge.net/DTD/sodipodi-0.dtd"
   xmlns:inkscape="http://www.inkscape.org/namespaces/inkscape"
   viewBox="0 0 22 22"
   id="svg2"
   version="1.1"
   inkscape:version="0.91 r"
   sodipodi:docname="salut.svg"
   width="22"
   height="22">
  <metadata
     id="metadata106">
    <rdf:RDF>
      <cc:Work
         rdf:about="">
        <dc:format>image/svg+xml</dc:format>
        <dc:type
           rdf:resource="http://purl.org/dc/dcmitype/StillImage" />
        <dc:title />
      </cc:Work>
    </rdf:RDF>
  </metadata>
  <sodipodi:namedview
     pagecolor="#ffffff"
     bordercolor="#666666"
     borderopacity="1"
     objecttolerance="10"
     gridtolerance="10"
     guidetolerance="10"
     inkscape:pageopacity="0"
     inkscape:pageshadow="2"
     inkscape:window-width="1920"
     inkscape:window-height="1056"
     id="namedview104"
     showgrid="true"
     inkscape:zoom="13.906434"
     inkscape:cx="-6.84785"
     inkscape:cy="11.888702"
     inkscape:window-x="0"
     inkscape:window-y="24"
     inkscape:window-maximized="1"
     inkscape:current-layer="svg2">
    <inkscape:grid
       type="xygrid"
       id="grid4234" />
  </sodipodi:namedview>
  <defs
     id="defs4" />
  <path
     d="m 10.510417,8 0.980114,0 C 12.95928,8 13,9.530065 13,9.530065 l 0,1.313776 c 0,0.499167 -1,1.530066 -1,1.530066 l 0,0.657131 2,1.093598 L 14,15 l -6,0 0,-0.875364 2,-1.093598 0,-0.657131 c 0,0 -1.003314,-1.030899 -1,-1.530066 L 9,9.530065 C 9,9.530065 9.040719,8 10.50947,8 Z"
     style="fill:#4a8c9d"
     id="path74"
     inkscape:connector-curvature="0"
     sodipodi:nodetypes="cscsccccccccccsc" />
  <path
     style="color:#000000;font-style:normal;font-variant:normal;font-weight:normal;font-stretch:normal;font-size:medium;line-height:normal;font-family:sans-serif;text-indent:0;text-align:start;text-decoration:none;text-decoration-line:none;text-decoration-style:solid;text-decoration-color:#000000;letter-spacing:normal;word-spacing:normal;text-transform:none;direction:ltr;block-progression:tb;writing-mode:lr-tb;baseline-shift:baseline;text-anchor:start;white-space:normal;clip-rule:nonzero;display:inline;overflow:visible;visibility:visible;opacity:1;isolation:auto;mix-blend-mode:normal;color-interpolation:sRGB;color-interpolation-filters:linearRGB;solid-color:#000000;solid-opacity:1;fill:#4a8c9d;fill-opacity:1;fill-rule:nonzero;stroke:none;stroke-width:1.5;stroke-linecap:round;stroke-linejoin:round;stroke-miterlimit:4;stroke-dasharray:none;stroke-dashoffset:0;stroke-opacity:1;color-rendering:auto;image-rendering:auto;shape-rendering:auto;text-rendering:auto;enable-background:accumulate"
     d="M 11,2 C 6.033049,2 2,6.0341595 2,10.999024 2,15.965926 6.033058,20 11,20 15.966968,20 20,15.965455 20,10.999024 20,6.0340025 15.966942,2 11,2 Z m 0,0.75 c 4.561672,0 8.25,3.6893375 8.25,8.249024 C 19.25,15.560246 15.561646,19.25 11,19.25 6.438328,19.25 2.75,15.560759 2.75,10.999024 2.75,6.4395085 6.438337,2.75 11,2.75 Z"
     id="path78"
     inkscape:connector-curvature="0" />
  <path
     style="color:#000000;font-style:normal;font-variant:normal;font-weight:normal;font-stretch:normal;font-size:medium;line-height:normal;font-family:sans-serif;text-indent:0;text-align:start;text-decoration:none;text-decoration-line:none;text-decoration-style:solid;text-decoration-color:#000000;letter-spacing:normal;word-spacing:normal;text-transform:none;direction:ltr;block-progression:tb;writing-mode:lr-tb;baseline-shift:baseline;text-anchor:start;white-space:normal;clip-rule:nonzero;display:inline;overflow:visible;visibility:visible;opacity:1;isolation:auto;mix-blend-mode:normal;color-interpolation:sRGB;color-interpolation-filters:linearRGB;solid-color:#000000;solid-opacity:1;fill:#4a8c9d;fill-opacity:1;fill-rule:nonzero;stroke:none;stroke-width:1.5;stroke-linecap:round;stroke-linejoin:round;stroke-miterlimit:4;stroke-dasharray:none;stroke-dashoffset:0;stroke-opacity:1;color-rendering:auto;image-rendering:auto;shape-rendering:auto;text-rendering:auto;enable-background:accumulate"
     d="m 11,4.75 c -3.447478,0 -6.25,2.8026105 -6.25,6.25 0,3.447286 2.802513,6.25 6.25,6.25 3.447477,0 6.25,-2.80261 6.25,-6.25 0,-3.447285 -2.802514,-6.25 -6.25,-6.25 z m 0,0.75 c 3.042169,0 5.5,2.458027 5.5,5.5 0,3.042092 -2.457823,5.5 -5.5,5.5 C 7.95783,16.5 5.5,14.041974 5.5,11 5.5,7.9579085 7.957822,5.5 11,5.5 Z"
     id="path80"
     inkscape:connector-curvature="0" />
  <g
     style="fill:#4a8c9d"
     id="g92"
     transform="matrix(0.5,0,0,0.5,-0.9745763,-1.4067795)">
    <path
       d="m 14.418,21.434 c 0,0.992 -0.805,1.801 -1.801,1.801 -0.992,0 -1.801,-0.809 -1.801,-1.801 0,-0.996 0.809,-1.801 1.801,-1.801 0.996,0 1.801,0.805 1.801,1.801 z"
       id="path94"
       inkscape:connector-curvature="0" />
    <path
       d="m 35.941,19.06 c 0,0.992 -0.805,1.801 -1.801,1.801 -0.992,0 -1.801,-0.809 -1.801,-1.801 0,-0.996 0.809,-1.801 1.801,-1.801 0.996,0 1.801,0.805 1.801,1.801 z"
       id="path96"
       inkscape:connector-curvature="0" />
    <path
       d="m 26.27,7.684 c 0,0.996 -0.805,1.801 -1.801,1.801 -0.992,0 -1.797,-0.805 -1.797,-1.801 0,-0.996 0.805,-1.801 1.797,-1.801 0.996,0 1.801,0.805 1.801,1.801 z"
       id="path98"
       inkscape:connector-curvature="0" />
    <path
       d="m 15.559,38.688 c 0,0.996 -0.809,1.801 -1.801,1.801 -0.996,0 -1.801,-0.805 -1.801,-1.801 0,-0.992 0.805,-1.801 1.801,-1.801 0.992,0 1.801,0.809 1.801,1.801 z"
       id="path100"
       inkscape:connector-curvature="0" />
    <path
       d="m 35.09,39.445 c 0,0.996 -0.809,1.801 -1.801,1.801 -0.996,0 -1.801,-0.805 -1.801,-1.801 0,-0.992 0.805,-1.797 1.801,-1.797 0.992,0 1.801,0.805 1.801,1.797 z"
       id="path102"
       inkscape:connector-curvature="0" />
  </g>
</svg>

<svg xmlns="http://www.w3.org/2000/svg" viewBox="0 0 22 22">
 <path d="m 10.51 8 0.98 0 c 1.469 0 1.509 1.53 1.509 1.53 l 0 1.314 c 0 0.499 -1 1.53 -1 1.53 l 0 0.657 2 1.094 l 0 0.875 l -6 0 0 -0.875 2 -1.094 0 -0.657 c 0 0 -1 -1.031 -1 -1.53 l 0 -1.314 c 0 0 0.041 -1.53 1.509 -1.53" style="fill:#4a8c9d"/>
 <path d="m 11 2 c -4.967 0 -9 4.03 -9 8.999 0 4.967 4.03 9 9 9 4.967 0 9 -4.03 9 -9 0 -4.965 -4.03 -8.999 -9 -8.999 m 0 0.75 c 4.562 0 8.25 3.689 8.25 8.249 c 0 4.561 -3.688 8.251 -8.25 8.251 -4.562 0 -8.25 -3.689 -8.25 -8.251 0 -4.56 3.688 -8.249 8.25 -8.249" mix-blend-mode="normal" isolation="auto" white-space="normal" solid-opacity="1" solid-color="#000000" style="visibility:visible;shape-rendering:auto;color-interpolation-filters:linearRGB;fill:#4a8c9d;opacity:1;image-rendering:auto;fill-opacity:1;stroke:none;display:inline;color:#000;fill-rule:nonzero;color-rendering:auto;color-interpolation:sRGB"/>
 <path d="m 11 4.75 c -3.447 0 -6.25 2.803 -6.25 6.25 0 3.447 2.803 6.25 6.25 6.25 3.447 0 6.25 -2.803 6.25 -6.25 0 -3.447 -2.803 -6.25 -6.25 -6.25 z m 0 0.75 c 3.042 0 5.5 2.458 5.5 5.5 0 3.042 -2.458 5.5 -5.5 5.5 c -3.042 0 -5.5 -2.458 -5.5 -5.5 0 -3.042 2.458 -5.5 5.5 -5.5" mix-blend-mode="normal" isolation="auto" white-space="normal" solid-opacity="1" solid-color="#000000" style="visibility:visible;shape-rendering:auto;color-interpolation-filters:linearRGB;fill:#4a8c9d;opacity:1;image-rendering:auto;fill-opacity:1;stroke:none;display:inline;color:#000;fill-rule:nonzero;color-rendering:auto;color-interpolation:sRGB"/>
 <g transform="matrix(0.5,0,0,0.5,-0.9745763,-1.4067795)" style="fill:#4a8c9d">
  <path d="m 14.418 21.434 c 0 0.992 -0.805 1.801 -1.801 1.801 -0.992 0 -1.801 -0.809 -1.801 -1.801 0 -0.996 0.809 -1.801 1.801 -1.801 0.996 0 1.801 0.805 1.801 1.801 z"/>
  <path d="m 35.941 19.06 c 0 0.992 -0.805 1.801 -1.801 1.801 -0.992 0 -1.801 -0.809 -1.801 -1.801 0 -0.996 0.809 -1.801 1.801 -1.801 0.996 0 1.801 0.805 1.801 1.801 z"/>
  <path d="m 26.27 7.684 c 0 0.996 -0.805 1.801 -1.801 1.801 -0.992 0 -1.797 -0.805 -1.797 -1.801 0 -0.996 0.805 -1.801 1.797 -1.801 0.996 0 1.801 0.805 1.801 1.801 z"/>
  <path d="m 15.559 38.688 c 0 0.996 -0.809 1.801 -1.801 1.801 -0.996 0 -1.801 -0.805 -1.801 -1.801 0 -0.992 0.805 -1.801 1.801 -1.801 0.992 0 1.801 0.809 1.801 1.801 z"/>
  <path d="m 35.09 39.445 c 0 0.996 -0.809 1.801 -1.801 1.801 -0.996 0 -1.801 -0.805 -1.801 -1.801 0 -0.992 0.805 -1.797 1.801 -1.797 0.992 0 1.801 0.805 1.801 1.797 z"/>
 </g>
</svg>
